X:1
T:Rex Gloriose Martyrum, LM
T:Rex Gloriose Martyrum, LM
T:Catholische Geistliche Gesänge, Andernach, 1608
T:Public Domain Courtesy of the Cyber Hymnal™
C:Catholische Geistliche Gesänge, Andernach, 1608
Z:Public Domain
Z:Courtesy of the Cyber Hymnal™
%%score ( 1 2 ) ( 3 4 )
L:1/8
Q:1/4=112
M:4/4
K:E
V:1 treble 
V:2 treble 
V:3 bass 
V:4 bass 
V:1
 E2 | [EG]2 [EA]2 [DB]2 [EB]2 | [Ec]2 [Ad]2 [Ge]2 [GB]2 | e3 z d [Gc]2 [FB]2 | %4
 [Gc]2 ^A2 [DB]2 [EB]2 | [Ec]2 [EA]2 [DB]2 [EG]2 | [EA]2 [DF]2 E2 [Ee]2 | [Fd]2 [Fc]2 [GB]2 G2 x | %8
 ([FA][EG]) [DF]2 E4 x |] %9
V:2
 E2 | x8 | x8 | E2 F2 x5 | x2 (FE) x4 | x8 | x4 E2 x2 | x6 G2 x | x4 E4 x |] %9
V:3
 [E,G,]2 | B,2 [C,A,]2 [B,,F,]2 [G,B,]2 | A,2 [F,A,]2 [E,B,]2 [E,B,]2 | %3
 [G,B,]2 [F,B,]2 (G,^A,) [D,B,]2 x | [C,E]2 [F,C]2 [B,,B,]2 [G,B,]2 | %5
 A,[G,B,] [F,C]2 [G,B,]2 [E,C]2 | [F,C]2 (B,A,) [C,G,]2 [C,C]2 | B,3 z A, [E,G,]2 (CB,) | %8
 A,3 z B, [E,G,]4 |] %9
V:4
 x2 | (E,D,) x6 | (A,G,) x6 | x4 E,2 x3 | x8 | A, x7 | x2 B,,2 x4 | D,2 (D,2 x ^E,2) x2 | %8
 F,2 B,,2 x5 |] %9

